icons/Sass.svg

<svg xmlns="http://www.w3.org/2000/svg" width="256" height="256" fill="none" viewBox="0 0 256 256"><rect width="256" height="256" fill="#CD6799" rx="60"/><g clip-path="url(#clip0_137_201)"><path fill="#fff" d="M200.107 139.163C193.133 139.199 187.073 140.879 181.998 143.361C180.136 139.674 178.274 136.388 177.945 133.978C177.58 131.167 177.142 129.451 177.58 126.092C178.018 122.733 179.99 117.951 179.953 117.586C179.917 117.22 179.515 115.505 175.499 115.468C171.483 115.432 168.015 116.235 167.613 117.294C167.211 118.352 166.445 120.762 165.934 123.245C165.24 126.896 157.901 139.93 153.703 146.757C152.352 144.092 151.184 141.755 150.928 139.893C150.563 137.082 150.125 135.366 150.563 132.007C151.001 128.648 152.973 123.865 152.936 123.5C152.9 123.135 152.498 121.419 148.482 121.383C144.466 121.346 140.997 122.149 140.596 123.208C140.194 124.267 139.756 126.75 138.916 129.159C138.077 131.569 128.329 153.329 125.773 158.951C124.459 161.835 123.327 164.135 122.524 165.705C122.524 165.705 122.487 165.815 122.378 165.997C121.684 167.348 121.282 168.078 121.282 168.078C121.282 168.078 121.282 168.078 121.282 168.115C120.735 169.101 120.15 170.013 119.858 170.013C119.639 170.013 119.238 167.385 119.931 163.807C121.392 156.249 124.86 144.493 124.824 144.092C124.824 143.873 125.481 141.828 122.56 140.769C119.712 139.71 118.69 141.463 118.434 141.463C118.179 141.463 117.996 142.084 117.996 142.084C117.996 142.084 121.173 128.867 111.936 128.867C106.167 128.867 98.2081 135.183 94.2651 140.879C91.7824 142.23 86.4885 145.114 80.8295 148.217C78.6755 149.422 76.4484 150.627 74.3673 151.759C74.2213 151.613 74.0753 151.43 73.9292 151.284C62.7573 139.345 42.0928 130.912 42.969 114.884C43.2976 109.042 45.3056 93.7083 82.655 75.0883C113.396 59.9368 137.858 64.1354 142.093 73.4454C148.153 86.7349 128.986 111.415 97.2224 114.993C85.1012 116.344 78.7485 111.671 77.1421 109.919C75.4626 108.093 75.2071 107.984 74.5864 108.349C73.5641 108.896 74.2213 110.539 74.5864 111.488C75.5356 113.971 79.4422 118.352 86.0504 120.506C91.892 122.405 106.094 123.464 123.29 116.819C142.531 109.371 157.573 88.6699 153.155 71.3278C148.738 53.7302 119.53 47.9251 91.892 57.7462C75.4626 63.5878 57.6459 72.7882 44.831 84.7634C29.6065 99.0022 27.1968 111.379 28.1826 116.563C31.724 134.964 57.0983 146.939 67.2479 155.811C66.7368 156.103 66.2622 156.359 65.8606 156.578C60.7857 159.097 41.4356 169.21 36.6163 179.908C31.1399 192.029 37.4926 200.718 41.6912 201.886C54.7251 205.501 68.1242 199.002 75.3166 188.268C82.509 177.534 81.6328 163.588 78.3104 157.199C78.2739 157.126 78.2374 157.053 78.1643 156.98C79.4787 156.213 80.8295 155.41 82.1439 154.643C84.7361 153.11 87.2917 151.686 89.4823 150.517C88.241 153.913 87.3283 157.965 86.8901 163.807C86.3425 170.671 89.1537 179.579 92.8412 183.084C94.4842 184.617 96.4192 184.654 97.6605 184.654C101.969 184.654 103.904 181.076 106.058 176.841C108.686 171.656 111.06 165.632 111.06 165.632C111.06 165.632 108.102 181.916 116.134 181.916C119.055 181.916 122.012 178.119 123.327 176.184C123.327 176.22 123.327 176.22 123.327 176.22C123.327 176.22 123.4 176.111 123.546 175.855C123.838 175.38 124.02 175.088 124.02 175.088C124.02 175.088 124.02 175.052 124.02 175.015C125.189 172.971 127.817 168.334 131.724 160.63C136.762 150.7 141.618 138.287 141.618 138.287C141.618 138.287 142.056 141.317 143.553 146.355C144.429 149.313 146.255 152.562 147.715 155.702C146.547 157.345 145.817 158.257 145.817 158.257C145.817 158.257 145.817 158.257 145.853 158.294C144.904 159.535 143.882 160.886 142.75 162.2C138.77 166.947 134.024 172.387 133.367 173.957C132.6 175.819 132.783 177.169 134.243 178.265C135.302 179.068 137.2 179.177 139.135 179.068C142.713 178.812 145.233 177.936 146.474 177.388C148.409 176.695 150.673 175.636 152.79 174.066C156.697 171.182 159.07 167.056 158.851 161.616C158.741 158.622 157.755 155.629 156.551 152.817C156.916 152.306 157.244 151.795 157.609 151.284C163.78 142.266 168.562 132.372 168.562 132.372C168.562 132.372 169 135.402 170.497 140.441C171.227 142.996 172.724 145.771 174.039 148.473C168.234 153.183 164.656 158.659 163.378 162.237C161.078 168.882 162.867 171.875 166.262 172.569C167.796 172.898 169.986 172.168 171.593 171.474C173.637 170.817 176.047 169.685 178.347 168.005C182.253 165.121 186.014 161.105 185.795 155.665C185.685 153.183 185.028 150.736 184.115 148.363C189.044 146.319 195.397 145.187 203.502 146.136C220.881 148.181 224.313 159.024 223.655 163.588C222.998 168.151 219.347 170.634 218.142 171.401C216.938 172.168 216.536 172.423 216.646 172.971C216.792 173.774 217.376 173.737 218.398 173.591C219.822 173.336 227.525 169.904 227.854 161.507C228.402 150.773 218.179 139.053 200.107 139.163ZM66.0431 184.362C60.2746 190.641 52.2425 193.015 48.7741 191.007C45.0501 188.852 46.5105 179.579 53.5933 172.934C57.9015 168.882 63.4509 165.121 67.1384 162.821C67.9781 162.31 69.2195 161.58 70.7164 160.667C70.9719 160.521 71.118 160.448 71.118 160.448C71.41 160.265 71.7021 160.083 71.9942 159.9C74.5864 169.393 72.1037 177.754 66.0431 184.362ZM108.029 155.811C106.021 160.704 101.823 173.226 99.2669 172.533C97.0763 171.948 95.7255 162.456 98.8288 153.073C100.399 148.363 103.721 142.741 105.656 140.55C108.796 137.045 112.264 135.877 113.104 137.301C114.163 139.163 109.271 152.744 108.029 155.811ZM142.677 172.387C141.837 172.825 141.034 173.117 140.669 172.898C140.413 172.752 141.034 172.168 141.034 172.168C141.034 172.168 145.379 167.494 147.095 165.377C148.08 164.135 149.249 162.675 150.49 161.032C150.49 161.178 150.49 161.361 150.49 161.507C150.49 167.093 145.087 170.853 142.677 172.387ZM169.402 166.289C168.781 165.851 168.891 164.391 170.972 159.827C171.775 158.038 173.674 155.045 176.923 152.16C177.288 153.329 177.544 154.46 177.507 155.519C177.471 162.566 172.432 165.194 169.402 166.289Z"/></g><defs><clipPath id="clip0_137_201"><rect width="200" height="149.909" fill="#fff" transform="translate(28 53)"/></clipPath></defs></svg>

<svg xmlns="http://www.w3.org/2000/svg" width="256" height="256" fill="none" viewBox="0 0 256 256"><rect width="256" height="256" fill="#CD6799" rx="60"/><g clip-path="url(#a)"><path fill="#fff" d="M200.1 139.16a41.4 41.4 0 0 0-18.1 4.2c-1.86-3.69-3.73-6.97-4.06-9.38-.36-2.81-.8-4.53-.36-7.89s2.41-8.14 2.37-8.5c-.03-.37-.44-2.09-4.45-2.12s-7.49.77-7.89 1.82a44 44 0 0 0-1.68 5.95c-.69 3.66-8.03 16.69-12.23 23.52-1.35-2.67-2.52-5-2.77-6.87-.37-2.8-.8-4.52-.37-7.88s2.41-8.14 2.38-8.51-.44-2.08-4.46-2.12c-4.01-.03-7.48.77-7.88 1.83s-.84 3.54-1.68 5.95c-.84 2.4-10.6 24.17-13.15 29.8a168 168 0 0 1-3.25 6.75l-.14.29c-.7 1.35-1.1 2.08-1.1 2.08v.03c-.55 1-1.13 1.9-1.42 1.9-.22 0-.62-2.62.07-6.2 1.46-7.56 4.93-19.32 4.9-19.72 0-.22.65-2.26-2.27-3.32-2.85-1.06-3.87.7-4.13.7s-.43.61-.43.61 3.17-13.21-6.06-13.21c-5.77 0-13.73 6.31-17.67 12-2.49 1.36-7.78 4.24-13.44 7.35-2.15 1.2-4.38 2.4-6.46 3.54l-.44-.48c-11.17-11.94-31.84-20.37-30.96-36.4.33-5.84 2.34-21.17 39.69-39.8 30.74-15.14 55.2-10.94 59.43-1.63 6.06 13.28-13.1 37.97-44.87 41.54-12.12 1.35-18.47-3.32-20.08-5.07-1.68-1.83-1.93-1.94-2.55-1.57-1.03.55-.37 2.19 0 3.14.95 2.48 4.85 6.86 11.46 9.02 5.84 1.9 20.04 2.95 37.24-3.7 19.24-7.44 34.28-28.14 29.86-45.48-4.41-17.6-33.62-23.4-61.26-13.58-16.43 5.84-34.24 15.04-47.06 27.01C29.61 99 27.2 111.38 28.18 116.56c3.54 18.4 28.92 30.38 39.07 39.25q-.78.45-1.39.77c-5.07 2.52-24.42 12.63-29.24 23.33-5.48 12.12.87 20.8 5.07 21.98 13.04 3.61 26.43-2.89 33.63-13.62 7.19-10.74 6.31-24.68 2.99-31.07l-.15-.22 3.98-2.34a196 196 0 0 1 7.34-4.12c-1.24 3.4-2.15 7.44-2.59 13.29-.55 6.86 2.26 15.77 5.95 19.27 1.64 1.54 3.58 1.57 4.82 1.57 4.3 0 6.24-3.57 8.4-7.8 2.63-5.2 5-11.22 5-11.22s-2.96 16.29 5.07 16.29c2.93 0 5.88-3.8 7.2-5.74v.04l.22-.37.47-.76V175c1.17-2.04 3.8-6.68 7.7-14.38 5.04-9.93 9.9-22.34 9.9-22.34s.44 3.03 1.93 8.06c.88 2.96 2.7 6.21 4.16 9.35-1.16 1.65-1.9 2.56-1.9 2.56l.04.03c-.95 1.25-1.97 2.6-3.1 3.91-3.98 4.75-8.73 10.19-9.38 11.76-.77 1.86-.59 3.2.87 4.3 1.06.8 2.96.92 4.9.8 3.57-.25 6.1-1.12 7.33-1.67a25 25 0 0 0 6.32-3.32c3.9-2.89 6.28-7.01 6.06-12.45-.1-3-1.1-6-2.3-8.8l1.06-1.54c6.17-9.01 10.95-18.9 10.95-18.9s.44 3.02 1.94 8.06c.73 2.56 2.22 5.33 3.54 8.03-5.8 4.71-9.38 10.19-10.66 13.77-2.3 6.64-.51 9.63 2.88 10.33 1.54.33 3.73-.4 5.33-1.1a24 24 0 0 0 6.76-3.47c3.9-2.88 7.66-6.9 7.44-12.34a23 23 0 0 0-1.67-7.3c4.92-2.04 11.28-3.17 19.38-2.22 17.38 2.04 20.81 12.88 20.16 17.45-.66 4.56-4.31 7.04-5.52 7.81-1.2.77-1.6 1.02-1.5 1.57.15.8.74.77 1.76.62 1.42-.25 9.13-3.69 9.45-12.08.55-10.74-9.67-22.46-27.74-22.35m-134.06 45.2c-5.77 6.28-13.8 8.65-17.27 6.65-3.72-2.16-2.26-11.43 4.82-18.08 4.31-4.05 9.86-7.8 13.55-10.1.84-.52 2.08-1.25 3.58-2.16l.4-.22.87-.55c2.6 9.5.11 17.85-5.95 24.46m41.99-28.55c-2 4.9-6.2 17.42-8.76 16.72-2.2-.58-3.54-10.07-.44-19.46 1.57-4.7 4.9-10.33 6.83-12.52 3.14-3.5 6.6-4.67 7.44-3.25 1.06 1.86-3.83 15.44-5.07 18.51m34.65 16.58c-.84.44-1.65.73-2.01.5-.26-.14.36-.72.36-.72s4.35-4.68 6.06-6.8c.99-1.24 2.16-2.7 3.4-4.34v.48c0 5.58-5.4 9.34-7.81 10.88m26.72-6.1c-.62-.44-.5-1.9 1.57-6.46.8-1.8 2.7-4.79 5.95-7.67.37 1.17.62 2.3.59 3.36-.04 7.05-5.08 9.67-8.1 10.77"/></g><defs><clipPath id="a"><path fill="#fff" d="M28 53h200v149.91H28z"/></clipPath></defs></svg>
